X:003
T:Oh Dear what can the matter be. TS.003
M:6/8
L:1/8
Q:3/8=100
S:Thomas Sands’ MS,1810,Lincolnshire
R:glee
O:England;Lincolnshire
Z:vmp.Ruairidh Greig, 2011
K:G
d3d3|dBg dBG|c3c3|cAB cBA|
d3d3|dBg dBG|EAc BcA|G3G3:|
|:dBc dBc|dBg dBG|cAB cAB|cAB cBA|
dBc dBc|dBg dBG|EAc BcA|G3G3:|]

